X: 9
T:The Whish
M:6/8
L:1/8
Q:100
R:Jig
K:GMix
d|B>cd A2G|G2g g2g|f>ge d>ef|g2G B>AG|A3 e3|dB2 A2G|G3 G2:|

